**kern	**kern
*part1	*part1
*staff2	*staff1
*I"Piano	*
*clefF4	*clefG2
*k[b-e-a-]	*k[b-e-a-]
*M2/4	*M2/4
=1	=1
8r	16gLL
.	16gJJ
=	=
2EE- 2E-	12ee-L
.	12dd
.	12ccJ
.	12b-L
.	12a-
.	12gJ
=	=
12r	4.g
(12E-L	.
12FJ)	.
12GL	.
12F	.
.	8g
12E-J	.
=	=
4B-	(12gL
.	12a-
.	12gJ)
.	16qqg/
4BB-	(12fL
.	12e-
.	12fJ)
=	=
4E-	(12gL
.	12e-
.	12B-J)
4G	(12b-L
.	12e-
.	12B-J)
=	=
4F	(12b-L
.	12d
.	12B-J)
4BB-	(12a-L
.	12d
.	12B-J)
=	=
4E-	(12gL
.	12e-
.	12B-J)
4G	(12b-L
.	12e-
.	12B-J)
=	=
4F	(12b-L
.	12d
.	12B-J)
4BB-	12a-L
.	12d
.	12B-J
=	=
4E-	(12gL
.	12B-)
.	12e-`J
4r	(12gL
.	12b-)
.	12ee-`J
=	=
*-	*-
!!!system-decoration: {(s1,s2)}
